X:528
M:C
L:1/8
K:A
aA A/A/A cAAg|aAAa fedc|bB B/B/B dBB^a|bBB=a gfeg|
aA A/A/A cAAg|aAAa fedc|defa fecf|1 ecBc f2eg :|2 ecBc f2ec||

